images/icon-place.svg

<svg height="14" viewBox="0 0 9 14" width="9" xmlns="http://www.w3.org/2000/svg"><path d="m7.65996429 1.39642857c-.87289286-.89945454-1.92621429-1.34907143-3.15996429-1.34907143s-2.28707143.44972728-3.15996429 1.34907143c-.87289285.89934416-1.30939285 1.98458442-1.30939285 3.25572078 0 .65361688.096 1.19022078.288 1.60992208l3.18621428 6.96127917c.08732143.1978182.22264286.3536884.40596429.4675.18332143.1139221.37971428.1709936.58928571.1709936.20946429 0 .40596429-.0570715.58928572-.1709936.18332143-.1138116.32142857-.2696818.41453571-.4675l3.17732143-6.96127917c.19210714-.4197013.28810714-.9563052.28810714-1.60992208.00010715-1.27113636-.43639285-2.35626623-1.30939285-3.25572078zm-1.58003572 4.88363637c-.43639286.44961688-.963.67448051-1.57992857.67448051s-1.14353571-.22486363-1.58003571-.67448051c-.4365-.44972728-.65475-.99229221-.65475-1.62791559 0-.63551299.21825-1.17818831.65475-1.62780519.4365-.44972728.96321428-.67459091 1.58003571-.67459091.61692857 0 1.14353571.22486363 1.57992857.67459091.4365.44961688.65475.9922922.65475 1.62780519s-.21825 1.17807792-.65475 1.62791559z" fill="#1bb24b" fill-rule="evenodd"/></svg>

<?xml version="1.0" encoding="UTF-8" standalone="no"?>
<svg width="9px" height="14px" viewBox="0 0 9 14" version="1.1" xmlns="http://www.w3.org/2000/svg" xmlns:xlink="http://www.w3.org/1999/xlink">
    <!-- Generator: Sketch 3.7.2 (28276) - http://www.bohemiancoding.com/sketch -->
    <title>icon-place</title>
    <desc>Created with Sketch.</desc>
    <defs></defs>
    <g id="Symbols" stroke="none" stroke-width="1" fill="none" fill-rule="evenodd">
        <g id="icon-place" fill="#1BB24B">
            <path d="M7.65996429,1.39642857 C6.78707143,0.496974026 5.73375,0.0473571429 4.5,0.0473571429 C3.26625,0.0473571429 2.21292857,0.497084416 1.34003571,1.39642857 C0.467142857,2.29577273 0.0306428571,3.38101299 0.0306428571,4.65214935 C0.0306428571,5.30576623 0.126642857,5.84237013 0.318642857,6.26207143 L3.50485714,13.2233506 C3.59217857,13.4211688 3.7275,13.577039 3.91082143,13.6908506 C4.09414286,13.8047727 4.29053571,13.8618442 4.50010714,13.8618442 C4.70957143,13.8618442 4.90607143,13.8047727 5.08939286,13.6908506 C5.27271429,13.577039 5.41082143,13.4211688 5.50392857,13.2233506 L8.68125,6.26207143 C8.87335714,5.84237013 8.96935714,5.30576623 8.96935714,4.65214935 C8.96946429,3.38101299 8.53296429,2.29588312 7.65996429,1.39642857 L7.65996429,1.39642857 Z M6.07992857,6.28006494 C5.64353571,6.72968182 5.11692857,6.95454545 4.5,6.95454545 C3.88307143,6.95454545 3.35646429,6.72968182 2.91996429,6.28006494 C2.48346429,5.83033766 2.26521429,5.28777273 2.26521429,4.65214935 C2.26521429,4.01663636 2.48346429,3.47396104 2.91996429,3.02434416 C3.35646429,2.57461688 3.88317857,2.34975325 4.5,2.34975325 C5.11692857,2.34975325 5.64353571,2.57461688 6.07992857,3.02434416 C6.51642857,3.47396104 6.73467857,4.01663636 6.73467857,4.65214935 C6.73467857,5.28766234 6.51642857,5.83022727 6.07992857,6.28006494 L6.07992857,6.28006494 Z"></path>
        </g>
    </g>
</svg>
